X:1
T:Brincalhão
T:Brincalhão
T:RAG-TIME
T:Eduardo Souto
T:Aos meus filhinos Eduardinho e Nelsinho 
T:Public Domain - https://imslp.org/wiki/Brincalh%C3%A3o_(Souto%2C_Eduardo)
T:Public Domain - https://imslp.org/wiki/Brincalh%C3%A3o_(Souto%2C_Eduardo)
C:Eduardo Souto
Z:Aos meus filhinos Eduardinho e Nelsinho
Z:Public Domain - https://imslp.org/wiki/Brincalh%C3%A3o_(Souto%2C_Eduardo)
%%score { 1 | 2 }
L:1/8
Q:1/4=144
M:2/4
K:C
V:1 treble nm="Piano" snm="Pno."
V:2 bass 
V:1
"^Allegro" [cg]/[ca]/[cg] [Ge][Ec] | !>![Ge]!>![Ge] z2 | [GBd]/g/[GBd] [G_B^c]/g/[GBc] | %3
 [GBd] z [GBdg] z |:S{gab} c'/d'e'/ d'/c'a/ | c'g z/ e/g/e/ | d/ed/ d/ed/ | d/gd/ g z | %8
{gab} c'/d'e'/ d'/c'a/ | c'g z/ e/g/e/ | g/GA/ B[FBe] | [Ec] z!ff! [cegc'] z :: %12
 [cc']/[cc']a/ [cc'][cc'] | z/ [dd'][ee']/ [dd']/[ee'][ca]/ | [Bg]/[Bg]e/ [Gg]!>![Gg] | %15
 z/ c/d e/dc/ | d/[Bg]d/ [Gg]!>![Gg] | z/ d/e f/ed/ | e/eg/ [cc']/[cc']c'/4d'/4 | %19
 e'/c'c'/ c'/c'c'/4d'/4 | e'!f!!>!e!>!d!>!c | [cc']/[cc']a/ [cc'][cc'] | %22
 z/ [dd'][ee']/ [dd']/[ee'][ca]/ | [Bg]/[Bg]e/ [Gg]!>![Gg] | z/ cd/ e/dc/ | d/[Gg]d/ [Gg]!>![Gg] | %26
 z/ GA/ B[FBe] | [Ec] z!ff! [cegc'] z :|{gab} c'/d'e'/ d'/c'a/ | c'g z/ e/g/e/ | d/ed/ d/ed/ | %31
 d/gd/ g z |{gab} c'/d'e'/ d'/c'a/ | c'g z/ e/g/e/ | g/GA/ B[FBe] | [Ec] z!ff! [cegc'] z!fine! |: %36
[K:F] !>![A,A][CF]!>![A,A][^CG] | !>![A,A][DF]!>![A,A][D^F] | [DGBd] !>![D^FAd]2 z | %39
 z/ de/ f/e^d/ | [GBe]>[FBd] [EBc]/[FBd]/[GBe] | z/ cd/ e/dc/ | [Gc]>[^G=B] [Ac]/[Gc]/[Ac] | %43
 z!ff! [B,EGB]2 z | !>![A,A][CF]!>![A,A][^CG] | !>![A,A][DF]!>![A,A][C^F] | [DGBd] [D^FAd]2 z | %47
 z/ de/ f/ed/ | [Ac]>[^G=B] [Ac]/[GB]/[Ac] | [EG]>[^D^F] [EG]/[DF]/[EG] | %50
 z/ [B,GB]^F/ [B,EG]/[B,EA][B,EG]/ | [A,CF] z!ff! [FAcf] z!D.S.! :| %52
V:2
 E/F/E CA, | !>!C!>!C z2 | [G,F]2 [G,E]2 | [G,F] z [G,,G,] z |: [C,C][G,CE] [F,,F,][G,CF] | %5
 [C,C][G,CE] [F,,F,][G,CE] | [A,,A,][A,CD] [_A,,_A,][=A,CD] | [G,,G,][G,B,F] z [G,,G,] | %8
 [C,C][G,CE] [F,,F,][A,CE] | [C,C][G,CE] [G,,G,][G,CE] | [D,D][G,B,F] z [G,,G,] | %11
 [C,C] z [C,,C,] z :: [F,,F,][A,,A,][C,C][F,F] | [A,A][CFA] [F,,F,][A,CF] | %14
 [C,C][G,CE] [G,,G,][G,CE] | [C,C][G,CE] [G,,G,][G,CE] | [D,D][G,B,F] [G,,G,][G,B,F] | %17
 [D,D][G,B,F] [G,,G,][G,B,F] | [C,C][G,CE] [F,,F,][A,CF] | [C,C][G,CE] [F,,F,][A,CF] | %20
 [C,C]!>![E,,E,]!>![D,,D,]!>![C,,C,] | [F,,F,][A,,A,][C,C][F,F] | [A,A][CFA] [F,,F,][A,CF] | %23
 [C,C][G,CE] [G,,G,][G,CE] | [C,C][G,CE] [G,,G,][G,CE] | [D,D][G,B,F] [G,,G,][G,B,F] | %26
 [D,D][G,B,F] z [G,,G,] | [C,C] z [C,,C,] z :| [C,C][G,CE] [F,,F,][A,CE] | %29
 [C,C][G,CE] [G,,G,][G,CE] | [A,,A,][A,CD] [_A,,_A,][=A,CD] | [G,,G,][G,B,F] z [G,,G,] | %32
 [C,C][G,CE] [F,,F,][A,CE] | [C,C][G,CE] [G,,G,][G,CE] | [D,D][G,B,F] z [G,,G,] | %35
 [C,C] z [C,,C,] z |:[K:F] !>![F,,F,]2 !>![E,,E,]2 | !>![D,,D,]2 !>![C,,C,]2 | %38
 !>![B,,,B,,] !>![A,,,A,,]2 z | [G,,,G,,][B,DG] [B,,B,][B,DG] | [C,C]>[D,D] [E,E]/[D,D]/[C,C] | %41
 [G,,G,][B,CE] [C,,C,][B,CE] | [A,,A,]>[^G,,^G,] [A,,A,]/[G,,G,]/[A,,A,] | %43
 [G,,G,] !>![C,,C,]2 [C,,C,] | !>![F,,F,]2 !>![E,,E,]2 | !>![D,,D,]2 !>![C,,C,]2 | %46
 [B,,,B,,] !>![A,,,A,,]2 z | [G,,,G,,][B,DG] [B,,B,][B,DG] | %48
 [A,,A,]>[^G,,^G,] [A,,A,]/[G,,G,]/[A,,A,] | [C,,C,]>[C,,C,] [C,,C,]/[C,,C,]/[C,,C,] | %50
 [C,,C,][^C,,^C,] [D,,D,][E,,E,] | [F,,F,] z [F,,,F,,] z :| %52

